img/logo/valassis.svg

<?xml version="1.0" encoding="UTF-8"?>
<svg width="90px" height="30px" viewBox="0 0 90 30" version="1.1" xmlns="http://www.w3.org/2000/svg" xmlns:xlink="http://www.w3.org/1999/xlink">
    <!-- Generator: Sketch 54.1 (76490) - https://sketchapp.com -->
    <title>logo/valassis</title>
    <desc>Created with Sketch.</desc>
    <g id="Symbols" stroke="none" stroke-width="1" fill="none" fill-rule="evenodd">
        <g id="nav/landing" transform="translate(-148.000000, -10.000000)" fill="#121C4F">
            <g id="navigation/page-scrolled">
                <g id="logo/valassis-navy" transform="translate(148.000000, 10.000000)">
                    <g id="Valassis-Integrated-Logo_All-Navy">
                        <polygon id="Path" fill-rule="nonzero" points="73.6153846 18.1153846 70.6153846 29.25 73.5576923 29.25 76.5576923 18.1153846"></polygon>
                        <polygon id="Path" fill-rule="nonzero" points="74.8269231 13.5 74.1346154 16.0384615 77.1346154 16.0384615 77.8269231 13.5"></polygon>
                        <polygon id="Path" fill-rule="nonzero" points="33.1153846 13.5 28.8461538 29.25 31.7307692 29.25 36 13.5"></polygon>
                        <path d="M49.7884615,20.9423077 C49.2115385,23.1923077 51.4038462,23.9423077 52.7884615,24.5192308 C54.6346154,25.3269231 55.3846154,25.6730769 55.2115385,26.3653846 C54.9230769,27.3461538 54.0576923,27.6923077 52.1538462,27.6923077 C50.5384615,27.6923077 48.9807692,26.9423077 48.5192308,26.3653846 L47.7692308,29.0769231 C49.2115385,29.4807692 50.7692308,29.7115385 52.2692308,29.7115385 C54.6923077,29.7115385 57.5769231,28.7307692 58.2692308,26.1923077 C58.9038462,23.9423077 56.6538462,23.1346154 54.9807692,22.3846154 C54.1153846,22.0384615 52.6153846,21.5769231 52.8461538,20.6538462 C52.9038462,20.3653846 53.1346154,19.5 55.5576923,19.5 C57.4615385,19.5 58.9038462,20.3076923 59.1346154,20.7115385 L59.8269231,18.1730769 C58.5576923,17.8269231 57.2307692,17.6538462 55.8461538,17.6538462 C51.9230769,17.7115385 50.1923077,19.3846154 49.7884615,20.9423077" id="Path" fill-rule="nonzero"></path>
                        <path d="M61.0961538,20.9423077 C60.5192308,23.1923077 62.7692308,23.9423077 64.0961538,24.5192308 C65.9423077,25.3269231 66.6923077,25.6730769 66.5192308,26.3653846 C66.2884615,27.3461538 65.3653846,27.6923077 63.4615385,27.6923077 C61.8461538,27.6923077 60.2884615,26.9423077 59.7692308,26.3653846 L59.0769231,29.0769231 C60.5192308,29.4807692 62.0769231,29.7115385 63.5769231,29.7115385 C66,29.7115385 68.8846154,28.7307692 69.5769231,26.1923077 C70.1538462,23.9423077 67.9615385,23.1346154 66.2884615,22.3846154 C65.4230769,22.0384615 63.9230769,21.5769231 64.1538462,20.6538462 C64.2115385,20.3653846 64.4423077,19.5 66.8653846,19.5 C68.8269231,19.5 70.2115385,20.3076923 70.4423077,20.7115385 L71.1346154,18.1730769 C69.8653846,17.8269231 68.5384615,17.6538462 67.1538462,17.6538462 C63.1730769,17.7115385 61.5,19.3846154 61.0961538,20.9423077" id="Path" fill-rule="nonzero"></path>
                        <path d="M78,20.9423077 C77.4230769,23.1923077 79.6730769,23.9423077 81,24.5192308 C82.8461538,25.3269231 83.5961538,25.6730769 83.4230769,26.3653846 C83.1346154,27.3461538 82.2692308,27.6923077 80.3653846,27.6923077 C78.75,27.6923077 77.1923077,26.9423077 76.6730769,26.3653846 L75.9807692,29.0769231 C77.4230769,29.4807692 78.9807692,29.7115385 80.4807692,29.7115385 C82.9038462,29.7115385 85.7884615,28.7307692 86.4807692,26.1923077 C87.1153846,23.9423077 84.8653846,23.1346154 83.1923077,22.3846154 C82.3269231,22.0384615 80.8269231,21.5769231 81.0576923,20.6538462 C81.1153846,20.3653846 81.3461538,19.5 83.7692308,19.5 C85.7307692,19.5 87.1153846,20.3076923 87.3461538,20.7115385 L88.0384615,18.1730769 C86.7692308,17.8269231 85.4423077,17.6538462 84.0576923,17.6538462 C80.0769231,17.7115385 78.4038462,19.3846154 78,20.9423077" id="Path" fill-rule="nonzero"></path>
                        <path d="M20.4807692,18 L19.5576923,18.1730769 L18.9230769,20.4230769 L19.2692308,20.3076923 C20.5961538,19.7884615 21.9807692,19.5576923 23.4230769,19.5 C24.4038462,19.5 25.0384615,19.6730769 25.3269231,20.0769231 C25.5,20.3653846 25.5576923,20.7115385 25.4423077,21.0576923 L25.3846154,21.1730769 C25.3846154,21.2307692 25.3846154,21.2307692 25.3846154,21.2884615 L25.2115385,21.9807692 L24.8076923,21.9807692 C18.1153846,21.9807692 16.0961538,24.1730769 15.6346154,25.9615385 C14.8846154,28.6730769 17.3076923,29.6538462 19.6153846,29.6538462 C21.1153846,29.6538462 22.6153846,29.1346154 23.7692308,28.2115385 C23.7692308,28.5 23.7692308,28.8461538 23.8269231,29.1346154 L23.8846154,29.25 L26.8269231,29.25 C26.7692308,29.1923077 26.7115385,29.1346154 26.6538462,29.0192308 L26.6538462,29.0192308 C26.5384615,28.3269231 26.6538462,27.5769231 26.8846154,26.9423077 L28.2115385,21.9230769 C28.9615385,19.0961538 27.5769231,17.7115385 23.9423077,17.7115385 C22.7307692,17.6538462 21.5769231,17.7692308 20.4807692,18 M18.5192308,25.9615385 C18.8653846,24.75 20.8846154,24.1153846 24.3461538,24.1153846 L24.6923077,24.1153846 C24.6346154,24.2307692 24.6346154,24.4038462 24.6346154,24.4038462 C24.0576923,26.25 22.3846154,27.4615385 20.4230769,27.4038462 C19.7307692,27.4038462 18.1730769,27.2307692 18.5192308,25.9615385" id="Shape" fill-rule="nonzero"></path>
                        <path d="M39.4615385,18 L38.5384615,18.1730769 L37.9038462,20.4230769 L38.25,20.3076923 C39.5769231,19.7884615 40.9615385,19.5576923 42.4038462,19.5 C43.3846154,19.5 44.0192308,19.6730769 44.3076923,20.0769231 C44.4807692,20.3653846 44.5384615,20.7115385 44.4230769,21.0576923 L44.4230769,21.1730769 C44.4230769,21.2307692 44.4230769,21.2307692 44.4230769,21.2884615 L44.25,21.9807692 L43.8461538,21.9807692 C37.1538462,21.9807692 35.1346154,24.1730769 34.6730769,25.9615385 C33.9230769,28.6730769 36.3461538,29.6538462 38.6538462,29.6538462 C40.1538462,29.6538462 41.5961538,29.1346154 42.8076923,28.2115385 C42.8076923,28.5 42.8076923,28.8461538 42.8653846,29.1346154 L42.8653846,29.25 L45.8076923,29.25 C45.75,29.1923077 45.6923077,29.1346154 45.6346154,29.0192308 L45.6346154,29.0192308 L45.6346154,29.0192308 C45.5192308,28.3269231 45.6346154,27.5769231 45.8653846,26.9423077 L47.1923077,21.9230769 C47.9423077,19.0961538 46.5576923,17.7115385 42.9230769,17.7115385 C41.7692308,17.6538462 40.6153846,17.7692308 39.4615385,18 M37.5576923,25.9615385 C37.9038462,24.75 39.9230769,24.1153846 43.3846154,24.1153846 L43.7307692,24.1153846 C43.6730769,24.2307692 43.6730769,24.4038462 43.6730769,24.4038462 C43.0961538,26.25 41.4230769,27.4615385 39.4615385,27.4038462 C38.7115385,27.4038462 37.2115385,27.2307692 37.5576923,25.9615385" id="Shape" fill-rule="nonzero"></path>
                        <polygon id="Path" fill-rule="nonzero" points="5.59615385 29.3076923 10.6730769 29.3076923 9.11538462 24.9230769"></polygon>
                        <polygon id="Path" fill-rule="nonzero" points="0 13.5 5.25 28.2692308 8.76923077 23.8269231 5.07692308 13.5"></polygon>
                        <polygon id="Path" fill-rule="nonzero" points="28.5 0.519230769 9.80769231 24 11.3076923 28.2692308 29.0192308 0.519230769"></polygon>
                        <path d="M88.6153846,26.9423077 C87.8653846,26.9423077 87.2884615,27.5192308 87.2884615,28.2692308 C87.2884615,29.0192308 87.8653846,29.5961538 88.6153846,29.5961538 C89.3653846,29.5961538 89.9423077,29.0192308 89.9423077,28.2692308 C89.9423077,28.2692308 89.9423077,28.2692308 89.9423077,28.2692308 C89.9423077,27.5769231 89.3653846,26.9423077 88.6153846,26.9423077 C88.6153846,26.9423077 88.6153846,26.9423077 88.6153846,26.9423077 Z M87.5769231,28.2692308 C87.5769231,27.6923077 88.0384615,27.1730769 88.6730769,27.1153846 L88.6730769,27.1153846 C89.3076923,27.1153846 89.8269231,27.6346154 89.8269231,28.2692308 C89.8269231,28.9038462 89.3076923,29.4230769 88.6730769,29.4230769 L88.6730769,29.4230769 C88.0384615,29.3653846 87.5769231,28.9038462 87.5769231,28.2692308 L87.5769231,28.2692308 Z M88.1538462,27.5769231 L88.1538462,29.0769231 L88.3846154,29.0769231 L88.3846154,28.4423077 L88.5576923,28.4423077 C88.7307692,28.4423077 88.8461538,28.5 88.8461538,28.6730769 C88.8461538,28.6730769 88.8461538,28.6730769 88.8461538,28.7307692 C88.8461538,28.8461538 88.9038462,29.0192308 88.9615385,29.1346154 L89.1923077,29.1346154 C89.1346154,29.0192308 89.1346154,28.9038462 89.0769231,28.7884615 C89.0192308,28.5576923 88.9615385,28.4423077 88.8461538,28.4423077 L88.8461538,28.4423077 C89.0192308,28.3846154 89.1346154,28.2692308 89.1346154,28.0961538 C89.1346154,27.9807692 89.0769231,27.8653846 89.0192308,27.8076923 C88.9038462,27.75 88.7307692,27.6923077 88.5576923,27.6923077 C88.4423077,27.5769231 88.2692308,27.5769231 88.1538462,27.5769231 L88.1538462,27.5769231 Z M88.3846154,27.75 L88.5576923,27.75 C88.8461538,27.75 88.9038462,27.8653846 88.9038462,28.0384615 C88.9038462,28.2115385 88.7307692,28.2692308 88.5576923,28.2692308 L88.3846154,28.2692308 L88.3846154,27.75 Z" id="Shape" fill-rule="nonzero"></path>
                    </g>
                </g>
            </g>
        </g>
    </g>
</svg>

<svg width="90" height="30" xmlns="http://www.w3.org/2000/svg"><path d="M73.615 18.115l-3 11.135h2.943l3-11.135zm1.212-4.615l-.692 2.538h3l.692-2.538zm-41.712 0l-4.269 15.75h2.885L36 13.5zm16.673 7.442c-.576 2.25 1.616 3 3 3.577 1.847.808 2.597 1.154 2.424 1.846-.289.981-1.154 1.327-3.058 1.327-1.616 0-3.173-.75-3.635-1.327l-.75 2.712c1.443.404 3 .635 4.5.635 2.423 0 5.308-.981 6-3.52.635-2.25-1.615-3.057-3.288-3.807-.866-.347-2.366-.808-2.135-1.731.058-.289.289-1.154 2.712-1.154 1.904 0 3.346.808 3.577 1.212l.692-2.539a15.063 15.063 0 00-3.98-.52c-3.924.059-5.655 1.732-6.059 3.29m11.308-.001c-.577 2.25 1.673 3 3 3.577 1.846.808 2.596 1.154 2.423 1.846-.23.981-1.154 1.327-3.057 1.327-1.616 0-3.174-.75-3.693-1.327l-.692 2.712c1.442.404 3 .635 4.5.635 2.423 0 5.308-.981 6-3.52.577-2.25-1.615-3.057-3.289-3.807-.865-.347-2.365-.808-2.134-1.731.058-.289.288-1.154 2.711-1.154 1.962 0 3.347.808 3.577 1.212l.693-2.539a15.063 15.063 0 00-3.981-.52c-3.98.059-5.654 1.732-6.058 3.29M78 20.942c-.577 2.25 1.673 3 3 3.577 1.846.808 2.596 1.154 2.423 1.846-.288.981-1.154 1.327-3.058 1.327-1.615 0-3.173-.75-3.692-1.327l-.692 2.712c1.442.404 3 .635 4.5.635 2.423 0 5.307-.981 6-3.52.634-2.25-1.616-3.057-3.289-3.807-.865-.347-2.365-.808-2.134-1.731.057-.289.288-1.154 2.711-1.154 1.962 0 3.346.808 3.577 1.212l.692-2.539a15.063 15.063 0 00-3.98-.52c-3.981.059-5.654 1.732-6.058 3.29M20.48 18l-.922.173-.635 2.25.346-.115c1.327-.52 2.712-.75 4.154-.808.98 0 1.615.173 1.904.577.173.288.23.635.115.98l-.057.116v.115l-.173.693h-.404c-6.693 0-8.712 2.192-9.173 3.98-.75 2.712 1.673 3.693 3.98 3.693 1.5 0 3-.52 4.154-1.442 0 .288 0 .634.058.923l.058.115h2.942a.796.796 0 01-.173-.23c-.116-.693 0-1.443.23-2.078l1.328-5.019c.75-2.827-.635-4.211-4.27-4.211a13.59 13.59 0 00-3.461.288m-1.962 7.962c.346-1.212 2.366-1.847 5.827-1.847h.346c-.057.116-.057.289-.057.289a4.227 4.227 0 01-4.212 3c-.692 0-2.25-.173-1.904-1.442M39.462 18l-.924.173-.634 2.25.346-.115c1.327-.52 2.712-.75 4.154-.808.98 0 1.615.173 1.904.577.173.288.23.635.115.98v.231l-.173.693h-.404c-6.692 0-8.711 2.192-9.173 3.98-.75 2.712 1.673 3.693 3.98 3.693 1.5 0 2.943-.52 4.155-1.442 0 .288 0 .634.057.923v.115h2.943a.796.796 0 01-.173-.23c-.116-.693 0-1.443.23-2.078l1.327-5.019c.75-2.827-.634-4.211-4.269-4.211-1.154-.058-2.308.057-3.461.288m-1.904 7.962c.346-1.212 2.365-1.847 5.827-1.847h.346c-.058.116-.058.289-.058.289a4.227 4.227 0 01-4.211 3c-.75 0-2.25-.173-1.904-1.442M5.596 29.308h5.077l-1.558-4.385zM0 13.5l5.25 14.77 3.52-4.443L5.076 13.5zM28.5.52L9.808 24l1.5 4.27L29.019.52zm60.115 26.422c-.75 0-1.327.577-1.327 1.327s.577 1.327 1.327 1.327 1.327-.577 1.327-1.327c0-.692-.577-1.327-1.327-1.327zm-1.038 1.327c0-.577.461-1.096 1.096-1.154.635 0 1.154.52 1.154 1.154 0 .635-.52 1.154-1.154 1.154-.635-.058-1.096-.52-1.096-1.154zm.577-.692v1.5h.23v-.635h.174c.173 0 .288.058.288.231v.058c0 .115.058.288.116.404h.23c-.057-.116-.057-.231-.115-.347-.058-.23-.115-.346-.23-.346.172-.057.288-.173.288-.346a.44.44 0 00-.116-.288 1.087 1.087 0 00-.461-.116c-.116-.115-.289-.115-.404-.115zm.23.173h.174c.288 0 .346.115.346.288 0 .174-.173.231-.346.231h-.173v-.519z" fill="#121C4F"/></svg>
